X:783
T:Bonnie Lass Cam Ower the Burn
S:Battlefield Band, Stand Easy
Z:Nigel Gatherer
M:2/4
L:1/8
K:G
D2  D>E | G>A B2 | G<E E>D | E>G E2  |
D2  D>E | G>A B2 | d>e d<B | A2  G2 ||
B<d d>B | G>B d2 | e2  e>d | c>d e2  |
B<d d>B | G>B d2 | d>e d<B | A2  G2 |]
